icons-common/timer.svg

<svg height="1em" width="auto" viewBox="0 0 105 105" fill="currentColor" xmlns="http://www.w3.org/2000/svg">
    <path d="M50.877 30.0479C64.3553 30.0479 75.3553 40.8837 75.3553 54.1608C75.3553 67.4379 64.3553 78.2737 50.877 78.2737C37.3987 78.2737 26.3987 67.4379 26.3987 54.118C26.3987 40.798 37.3987 30.0479 50.877 30.0479ZM50.877 22.5527C33.1379 22.5527 18.79 36.6864 18.79 54.118C18.79 71.5495 33.1379 85.726 50.877 85.726C68.6161 85.726 82.964 71.5923 82.964 54.118C82.964 36.6436 68.5727 22.5527 50.877 22.5527Z"
          />
    <path d="M47.0509 32.3607C46.3118 29.1056 46.3118 25.8078 47.0509 22.5099C47.964 18.7409 53.7901 18.7838 54.6596 22.5099C55.3988 25.7649 55.3988 29.0628 54.6596 32.3607C53.7466 36.1296 47.9205 36.0868 47.0509 32.3607Z"
          />
    <path d="M72.9641 50.3918C76.2685 49.6637 79.6163 49.6637 82.9641 50.3918C86.7902 51.2912 86.7467 57.0303 82.9641 57.8869C79.6598 58.615 76.3119 58.615 72.9641 57.8869C69.138 56.9875 69.1815 51.2484 72.9641 50.3918Z"
          />
    <path d="M47.1113 55.9873L43.7422 55.1816L44.958 44.3711H56.9404V47.7842H48.4297L47.9023 52.5156C48.1855 52.3496 48.6152 52.1738 49.1914 51.9883C49.7676 51.793 50.4121 51.6953 51.125 51.6953C52.1602 51.6953 53.0781 51.8564 53.8789 52.1787C54.6797 52.501 55.3584 52.9697 55.915 53.585C56.4814 54.2002 56.9111 54.9521 57.2041 55.8408C57.4971 56.7295 57.6436 57.7354 57.6436 58.8584C57.6436 59.8057 57.4971 60.709 57.2041 61.5684C56.9111 62.418 56.4668 63.1797 55.8711 63.8535C55.2754 64.5176 54.5283 65.04 53.6299 65.4209C52.7314 65.8018 51.667 65.9922 50.4365 65.9922C49.5186 65.9922 48.6299 65.8555 47.7705 65.582C46.9209 65.3086 46.1543 64.9033 45.4707 64.3662C44.7969 63.8291 44.2549 63.1797 43.8447 62.418C43.4443 61.6465 43.2344 60.7676 43.2148 59.7812H47.4043C47.4629 60.3867 47.6191 60.9092 47.873 61.3486C48.1367 61.7783 48.4834 62.1104 48.9131 62.3447C49.3428 62.5791 49.8457 62.6963 50.4219 62.6963C50.959 62.6963 51.418 62.5938 51.7988 62.3887C52.1797 62.1836 52.4873 61.9004 52.7217 61.5391C52.9561 61.168 53.127 60.7383 53.2344 60.25C53.3516 59.752 53.4102 59.2148 53.4102 58.6387C53.4102 58.0625 53.3418 57.54 53.2051 57.0713C53.0684 56.6025 52.8584 56.1973 52.5752 55.8555C52.292 55.5137 51.9307 55.25 51.4912 55.0645C51.0615 54.8789 50.5586 54.7861 49.9824 54.7861C49.2012 54.7861 48.5957 54.9082 48.166 55.1523C47.7461 55.3965 47.3945 55.6748 47.1113 55.9873Z"
          />
</svg>

<svg xmlns="http://www.w3.org/2000/svg" width="auto" height="1em" fill="currentColor" viewBox="0 0 105 105">
    <path d="M50.877 30.048c13.478 0 24.478 10.836 24.478 24.113s-11 24.113-24.478 24.113-24.478-10.836-24.478-24.156 11-24.07 24.478-24.07m0-7.495c-17.74 0-32.087 14.133-32.087 31.565 0 17.431 14.348 31.608 32.087 31.608s32.087-14.134 32.087-31.608-14.391-31.565-32.087-31.565"/>
    <path d="M47.05 32.36a22.16 22.16 0 0 1 0-9.85c.914-3.77 6.74-3.726 7.61 0a22.16 22.16 0 0 1 0 9.85c-.913 3.77-6.74 3.727-7.61 0m25.914 18.032a23.2 23.2 0 0 1 10 0c3.826.9 3.783 6.638 0 7.495a23.2 23.2 0 0 1-10 0c-3.826-.9-3.782-6.639 0-7.495m-25.853 5.595-3.369-.805 1.216-10.81H56.94v3.412h-8.51l-.528 4.732q.425-.249 1.29-.528.864-.293 1.933-.293 1.553 0 2.754.484 1.201.483 2.036 1.406.849.922 1.29 2.256.438 1.333.439 3.017a8.3 8.3 0 0 1-.44 2.71 6.7 6.7 0 0 1-1.333 2.285q-.894.997-2.241 1.568-1.348.57-3.193.571a8.7 8.7 0 0 1-2.666-.41 7.3 7.3 0 0 1-2.3-1.216 6.3 6.3 0 0 1-1.626-1.948q-.6-1.157-.63-2.637h4.19q.087.909.468 1.568.396.644 1.04.996.645.351 1.509.351.806 0 1.377-.307a2.5 2.5 0 0 0 .923-.85q.351-.556.512-1.289a7 7 0 0 0 .176-1.611 5.6 5.6 0 0 0-.205-1.568 3.35 3.35 0 0 0-.63-1.215 2.8 2.8 0 0 0-1.084-.791q-.644-.279-1.509-.279-1.17 0-1.816.366-.63.367-1.055.835"/>
</svg>
